X:1
T:The Savior Calleth
T:The Savior Calleth
T:Franz Schubert
T:Anonymous, 1891
T:Public Domain Courtesy of the Cyber Hymnal™
T:Public Domain Courtesy of the Cyber Hymnal™
C:Franz Schubert
Z:Public Domain
Z:Courtesy of the Cyber Hymnal™
%%score ( 1 2 ) ( 3 4 )
L:1/8
Q:1/4=108
M:4/4
K:G
V:1 treble 
V:2 treble 
V:3 bass 
V:4 bass 
V:1
 [DG]2 | [DG]2 [DF]2 [DG]2 [DA]2 | [GB]2 [GB]2 [GB]2 (AG) | [DA]2 [DA]2 [DA]2 (GF) | %4
w: 1.~The|Sav- ior call- eth,|sin- ful one, With *|out- stretched arms to *|
w: 2.~The|Son of God felt|want and pain, Be- *|fore He Heav- en’s *|
w: 3.~Be-|hold Him dyed, from|foot to crown, With *|pur- ple blood, with *|
w: 4.~The|cross of pain is|Da- vid’s key The *|opes the pearl- y *|
 [DG]2 [CE]2 [B,D]2 [DG]2 | [Gc]2 [Gc]2 [Fc]2 (BA) | [GB]2 [DF]2 [DG]2 [EA]2 | %7
w: thee ap- peals; And|art thou cold and *|hard as stone, That|
w: throne at- tained, And|thou! with- out a *|fight and strain, Think’st|
w: an- guish- streams, And|thou wouldst drift life’s *|ri- ver down, In|
w: doors of light, The|up- ward path, a *|rug- ged way, That|
 [DG]2 [GB]2 [GB]2 [FA]2 | G6 z2 | [DB]2 [DB]2 [DB]2 (AB) | [Ec]2 [DB]2 [CA]4 | %11
w: nei- ther loves nor|feels?|Christ- ian, Christ- ian, *|kneel and weep,|
w: vic- tory can be|gained?|Christ- ian, Christ- ian, *|wres- tle sore:|
w: list- less sum- mer|dreams.|Christ- ian, Christ- ian, *|watch and pray|
w: leads to Hea- ven’s|height.|Christ- ian, Christ- ian, *|ev- er press|
 [EA]2 [_EA]2 [DA]2 (GA) | [GB]2 [DF]2 [DG]2 [EA]2 | [DG]2 [GB]2 [GB]2 [FA]2 | G6 |] %15
w: Shake a- way dull *|sense of sleep, That|o’er thy spir- it|steals.|
w: Nar- row way and *|strait- est door Must|ne- ver be dis-|dained.|
w: In thy brief, thy *|tri- al day, As|Christ- ian men be-|seems.|
w: O- ver hard- ships, *|through dis- tress And|bat- tle, to de-|light.|
V:2
 x2 | x8 | x6 D2 | x6 D2 | x8 | x6 F2 | x8 | x8 | G6 x2 | x6 D2 | x8 | x6 D2 | x8 | x8 | G6 |] %15
V:3
 [G,B,]2 | [G,B,]2 [G,A,]2 [G,B,]2 [G,C]2 | [G,D]2 [G,D]2 [G,D]2 (CB,) | %3
 [D,C]2 [D,C]2 [D,C]2 (B,A,) | [G,B,]2 [G,C]2 G,2 [G,B,]2 | [E,C]2 [_E,G,]2 [D,A,]2 (DC) | %6
 [G,,B,]2 [A,,C]2 [B,,D]2 [C,C]2 | [D,B,]2 [D,D]2 [D,D]2 [D,C]2 | [G,,B,]6 z2 | %9
 [G,B,]2 [=F,A,]2 [E,^G,]2 (^F,G,) | [E,A,]2 [E,^G,]2 [A,,A,]4 | [A,C]2 [A,C]2 [F,C]2 (B,C) | %12
 [G,,D]2 [A,,C]2 [B,,B,]2 [C,A,]2 | [D,B,]2 [D,D]2 [D,D]2 [D,C]2 | [G,,B,]6 |] %15
V:4
 x2 | x8 | x6 D,2 | x6 D,2 | x4 G,2 x2 | x6 D,2 | x8 | x8 | x8 | x6 E,2 | x8 | x6 D,2 | x8 | x8 | %14
 x6 |] %15

